X:1
T:Scimus quidem desiderare - Secunda pars
T:Franciscus IJsenbaert
T:Leiden Choir Books - Codex D - folio cviii
%%score 1 2 3 4
L:1/8
Q:1/4=96
M:none
K:C
V:1 treble nm="Discantus" snm="Discantus"
V:2 treble nm="Contratenor" snm="Contratenor"
V:3 treble-8 nm="Tenor" snm="Tenor"
V:4 bass nm="Barriton" snm="Barriton"
V:1
"^Andante" z8 | z8 | z8 | c4 B2 A2 | G3 A B2 c2- | c2 B2 A2 G2- | G2 ^F2 G4 | z8 | z2 c2 B2 A2 | %9
w: |||Sci- mus qui-|dem de- si- de-|* ra- re te|* Chris- tem||sed sal- va|
 B3 A G2 c2- | c2 e2 d2 c2 | g2 z6 | z2 c2 B2 A2 | B3 A G2 c2- | c2 e2 d2 c2 | g2 z4 G2- | %16
w: ti- bi sunt tu-|* a prea- mi-|a,|sed sal- va|ti- bi sunt tu-|* a prae- mi-|a, Nos|
 G2 G2 B2 A2 | B2 d2 c2 B2 | A2 z6 | z8 | z6 d2- | d2 c2 B3 A | B2 d2 c2 B2 | A2 c2 BA d2- | %24
w: _ tri po- ti-|us mi- se- re-|re||Nos|_ tri po- ti-|us mi- se- re|_ _ _ _ _|
 dc c4 B2 | cBAG A4 | G4 z2 G2 | c3 B c2 d2 | B2 c2 d2 e2 | z8 | z2 e2 d2 c2- | c2 B2 cBAG | %32
w: * * * re|_ _ _ _ _|* In-|va- dent e- nim|gre- gem tu- um||Lu- * pi|* ra- pa- * * *|
 A4 G4 | z2 G2 c3 B | c2 d2 B2 c2 | d2 e2 z4 | z6 e2 | d2 c4 B2 | c8- | c8- | c8 |] %41
w: * ces|In- va- dent|e- nim gre- get|tu- um,|Lu-|pi ra- pa-|ces.|||
V:2
 z8 | z4 G4 | F2 E2 D3 E | F2 G4 F2 | E2 D4 C2 | D4 z4 | z2 D4 C2 | B,2 A,2 z4 | z6 F2 | %9
w: |Sci-|mus qui- dem de-|si- de- ra|re te Chris-|tum|Sci- mus|qui- dem|sed|
 E2 D2 E3 D | C2 G4 A2 | G3 F E4- | E4 z2 F2 | E2 D2 E3 D | C2 G4 A2 | G3 F E4 | z2 G4 F2 | %17
w: sal- va ti- bi|sunt tu- a|prae- mi- a|* sed|sal- va ti- bi|sunt tu- a|prae- mi- a|Nos- tri|
 E2 D2 E2 G2 | F2 E2 D4 | z8 | z8 | z4 G3 F | E2 D2 E2 G2 | F2 E2 D2 F2 | E3 D/C/ D2 D2 | C4 z4 | %26
w: po- ti- us mi-|se- re- re||||||||
 z8 | C2 F3 E F2 | G2 E2 F2 G2 | A4 z4 | z2 E2 F2 E2 | D4 C4 | z8 | z4 C2 F2- | FE F2 G2 E2 | %35
w: |In- va- dent e-|nim gre- gem tu-|um|Lu- pi ra-|pa- ces||In- va-|* dent e- nim gre-|
 F2 G2 A3 G | F3 E/D/ E4 | F2 G2 A2 G2 | z2 E4 F2- | F2 G2 A4 | G8 |] %41
w: gem tu- um *|||Lu- pi|* ra- pa-|ces.|
V:3
 z4 c4 | B2 A2 G3 A | B2 c4 B2 | A2 G2 d4 | G4 z4 | z4 c4 | B2 A2 G3 A | B2 c4 B2 | A2 G4 F2 | %9
w: Sci-|mus qui- dem de-|si- de- ra-|re te Chris-|tum|Sci-|mus qui- dem de-|si- de- ra-|re te Chris-|
 G4 z4 | z2 c2 B2 A2 | B3 A G2 c2- | c2 e2 d2 c2 | B4 z4 | z2 c2 B2 A2 | B3 A G2 c2- | %16
w: tum|sed sal- va|ti- bi sunt tu-|* a prae- mi-|a,|sed sal- va|ti- bi sunt tu-|
 c2 e2 d2 c2 | B4 z4 | d3 c B2 A2 | B2 d2 c2 B2 | A2 c2 B3 A/G/ | A2 A2 G4 | z8 | z8 | z6 G2 | %25
w: * a prae- mi-|a,|Nos- tri po- ti-|us mi- se- re-|re quos de- * *|se- * ris|||In-|
 c3 B c2 d2 | B2 c2 d2 e2 | ed c4 BA | G4 z2 e2 | d2 c4 B2 | c4 z4 | z2 G2 c3 B | c2 d2 B2 c2 | %33
w: va- dent e- nim|gre- gem tu _|_ _ _ _ _|um Lu-|pi ra- pa-|ces|In- va- dent|e- nim gre- gem|
 d2 e2 z4 | z8 | z2 e2 d2 c2- | c2 B2 c2 c2 | f2 e2 d4 | c8- | c8- | c8 |] %41
w: tu- um||Lu- pi ra-|* pa- ces, lu-|pi ra- pa-|ces.|||
V:4
 G,4 F,2 E,2 | D,4 E,3 C, | D,2 C,2 G,4 | F,2 E,2 D,4 | z8 | G,4 F,2 E,2 | D,4 E,3 F, | %7
w: Sci- mus qui-|dem de- si-|de- ra- re|te Chris- tum||Sci- mus qui-|dem de- si-|
 G,2 F,2 E,2 D,2 | C,4 D,4 | z8 | z4 z2 F,2 | E,2 D,2 E,3 D, | C,4 G,2 A,2 | G,3 F, E,4 | z6 F,2 | %15
w: de- ra- re te|Chris- tum||sed|sal- va ti- bi|sunt tu- a|prae- mi- a,|sed|
 E,2 D,2 E,3 D, | C,2 G,4 A,2 | G,3 F, E,4 | z2 G,4 F,2 | E,2 D,2 E,2 G,2 | F,2 E,2 D,2 G,2 | %21
w: sal- va ti- bi|sunt tu- a|prae- mi- a,|Nos- tri|po- ti- us mi-|se- re- re quos|
 F,2 F,2 G,4- | G,4 z4 | z8 | z8 | C,2 F,3 E, F,2 | G,2 E,2 F,2 G,2 | A,3 G, F,2 D,2 | %28
w: de- se- ris||||In- va- dent e-|nim gre- gem tu-|um * * *|
 E,4 D,2 C,2 | F,3 E, D,4 | C,4 z4 | z4 C,2 F,2- | F,E, F,2 G,2 E,2 | F,2 G,2 A,4 | z8 | %35
w: |||||||
 z2 C,2 F,3 E, | D,4 C,2 C,2 | D,2 E,2 F,2 G,2 | z2 A,3 G, F,2- | F,2 E,2 F,4 | C,8 |] %41
w: In- va- dent|e- nim lu-|pi ra- pa- ces,|Lu- pi ra-|* pa- ces.||

